src/assets/images/free-demat-compaign/bank-proof-to-open-a-free-demat-account.svg

<svg width="88" height="80" viewBox="0 0 88 80" fill="none" xmlns="http://www.w3.org/2000/svg">
<path d="M85.0112 74.3944H84.0807V65.9863C84.0807 62.3764 81.1435 59.4504 77.5448 59.4504H76.6144V38.9011H77.5448C81.1547 38.9011 84.0807 35.9639 84.0807 32.3652V19.9549C84.0807 17.4325 82.3094 14.8204 79.9664 13.8787L46.3341 0.425775C44.9327 -0.134763 42.8924 -0.134763 41.491 0.425775L7.84753 13.8787C5.50448 14.8204 3.73318 17.4325 3.73318 19.9549V32.3652C3.73318 35.9751 6.6704 38.9011 10.2691 38.9011H11.1996V59.4504H10.2691C6.65919 59.4504 3.73318 62.3877 3.73318 65.9863V74.3944H2.80269C1.25561 74.3944 0 75.65 0 77.1971C0 78.7442 1.25561 79.9998 2.80269 79.9998H85.0112C86.5583 79.9998 87.8139 78.7442 87.8139 77.1971C87.8139 75.65 86.5583 74.3944 85.0112 74.3944ZM43.9126 12.7352C48.5538 12.7352 52.3206 16.5132 52.3206 21.1433C52.3206 25.7733 48.5538 29.5513 43.9126 29.5513C39.2713 29.5513 35.5045 25.7845 35.5045 21.1433C35.5045 16.502 39.2713 12.7352 43.9126 12.7352ZM71.009 38.8899V59.4392H61.6704V38.8899H71.009ZM56.065 38.8899V59.4392H46.7265V38.8899H56.065ZM41.1211 38.8899V59.4392H31.7825V38.8899H41.1211ZM16.8274 38.8899H26.1659V59.4392H16.8274V38.8899Z" fill="url(#paint0_linear_258_510)"/>
<path d="M43.9121 23.9462C45.4599 23.9462 46.7148 22.6914 46.7148 21.1435C46.7148 19.5956 45.4599 18.3408 43.9121 18.3408C42.3642 18.3408 41.1094 19.5956 41.1094 21.1435C41.1094 22.6914 42.3642 23.9462 43.9121 23.9462Z" fill="url(#paint1_linear_258_510)"/>
<defs>
<linearGradient id="paint0_linear_258_510" x1="43.907" y1="0.00537109" x2="43.907" y2="79.9998" gradientUnits="userSpaceOnUse">
<stop stop-color="#8EF8AA"/>
<stop offset="1" stop-color="#00EFD1"/>
</linearGradient>
<linearGradient id="paint1_linear_258_510" x1="43.9121" y1="18.3408" x2="43.9121" y2="23.9462" gradientUnits="userSpaceOnUse">
<stop stop-color="#8EF8AA"/>
<stop offset="1" stop-color="#00EFD1"/>
</linearGradient>
</defs>
</svg>

<svg width="88" height="80" fill="none" xmlns="http://www.w3.org/2000/svg"><path d="M85.011 74.394h-.93v-8.408a6.543 6.543 0 0 0-6.536-6.536h-.93V38.901h.93a6.543 6.543 0 0 0 6.536-6.536v-12.41c0-2.522-1.772-5.135-4.115-6.076L46.334.426c-1.401-.56-3.442-.56-4.843 0L7.848 13.879c-2.344.941-4.115 3.554-4.115 6.076v12.41a6.543 6.543 0 0 0 6.536 6.536h.93v20.55h-.93a6.543 6.543 0 0 0-6.536 6.535v8.408h-.93a2.804 2.804 0 0 0 0 5.606H85.01a2.804 2.804 0 0 0 0-5.606zM43.913 12.735c4.64 0 8.408 3.778 8.408 8.408 0 4.63-3.767 8.408-8.408 8.408a8.411 8.411 0 0 1-8.408-8.408 8.411 8.411 0 0 1 8.408-8.408zM71.009 38.89v20.55H61.67V38.89h9.339zm-14.944 0v20.55h-9.338V38.89h9.338zm-14.944 0v20.55h-9.339V38.89h9.34zm-24.294 0h9.339v20.55h-9.339V38.89z" fill="url(#a)"/><path d="M43.912 23.946a2.803 2.803 0 1 0 0-5.605 2.803 2.803 0 0 0 0 5.605z" fill="url(#b)"/><defs><linearGradient id="a" x1="43.907" y1=".005" x2="43.907" y2="80" gradientUnits="userSpaceOnUse"><stop stop-color="#8EF8AA"/><stop offset="1" stop-color="#00EFD1"/></linearGradient><linearGradient id="b" x1="43.912" y1="18.341" x2="43.912" y2="23.946" gradientUnits="userSpaceOnUse"><stop stop-color="#8EF8AA"/><stop offset="1" stop-color="#00EFD1"/></linearGradient></defs></svg>
